img/about-monitor-fill-3.svg

<svg height="20.003244" viewBox="0 0 18.5182717 20.003244" width="18.518272" xmlns="http://www.w3.org/2000/svg"><path d="m17.7468699 0h-16.97488945c-.42649894 0-.77198045.37318552-.77198045.83326013v18.33672377c0 .4600746.34548151.8332601.77198045.8332601h9.06585137v-7.5012165h-2.31478395v-3.12550687h2.31478395v-2.5004055c0-2.58354399 1.51444738-3.85500018 3.64809948-3.85500018 1.0219772 0 1.9004377.08251338 2.1562213.11876926v2.70043794l-1.4797256.0006251c-1.1602855 0-1.4311152.59572161-1.4311152 1.46961334v2.06596004h2.8934799l-.578696 3.12550687h-2.3147839l.0462957 7.5012165h4.9692624c.4259203 0 .7714018-.3731855.7714018-.8332601v-18.33672377c0-.46007461-.3454815-.83326013-.7714018-.83326013" fill="#9b9b9b" fill-rule="evenodd"/></svg>

<?xml version="1.0" encoding="UTF-8"?>
<svg width="18.5182717px" height="20.003244px" viewBox="0 0 18.5182717 20.003244" version="1.1" xmlns="http://www.w3.org/2000/svg" xmlns:xlink="http://www.w3.org/1999/xlink">
    <!-- Generator: Sketch 50.2 (55047) - http://www.bohemiancoding.com/sketch -->
    <desc>Created with Sketch.</desc>
    <defs></defs>
    <g id="Page-1" stroke="none" stroke-width="1" fill="none" fill-rule="evenodd">
        <path d="M17.7468699,0 L0.77198045,0 C0.345481506,0 0,0.373185521 0,0.833260133 L0,19.1699839 C0,19.6300585 0.345481506,20.003244 0.77198045,20.003244 L9.83783182,20.003244 L9.83783182,12.5020275 L7.52304787,12.5020275 L7.52304787,9.37652063 L9.83783182,9.37652063 L9.83783182,6.87611513 C9.83783182,4.29257114 11.3522792,3.02111495 13.4859313,3.02111495 C14.5079085,3.02111495 15.386369,3.10362833 15.6421526,3.13988421 L15.6421526,5.84032215 L14.162427,5.84094725 C13.0021415,5.84094725 12.7313118,6.43666886 12.7313118,7.31056059 L12.7313118,9.37652063 L15.6247917,9.37652063 L15.0460957,12.5020275 L12.7313118,12.5020275 L12.7776075,20.003244 L17.7468699,20.003244 C18.1727902,20.003244 18.5182717,19.6300585 18.5182717,19.1699839 L18.5182717,0.833260133 C18.5182717,0.373185521 18.1727902,0 17.7468699,0" id="Fill-3" fill="#9B9B9B"></path>
    </g>
</svg>
